vendor/shopware/storefront/Resources/app/storefront/dist/assets/icon/default/cloud-upload.svg

<svg xmlns="http://www.w3.org/2000/svg" width="24" height="24" viewBox="0 0 24 24">
  <path fill="#758CA3" fill-rule="evenodd" d="M13,10.4142136 L13,22 C13,22.5522847 12.5522847,23 12,23 C11.4477153,23 11,22.5522847 11,22 L11,10.4142136 L9.70710678,11.7071068 C9.31658249,12.0976311 8.68341751,12.0976311 8.29289322,11.7071068 C7.90236893,11.3165825 7.90236893,10.6834175 8.29289322,10.2928932 L11.2928932,7.29289322 C11.6834175,6.90236893 12.3165825,6.90236893 12.7071068,7.29289322 L15.7071068,10.2928932 C16.0976311,10.6834175 16.0976311,11.3165825 15.7071068,11.7071068 C15.3165825,12.0976311 14.6834175,12.0976311 14.2928932,11.7071068 L13,10.4142136 Z M13,1 C15.8074494,1 18.2963397,2.66785506 19.4019492,5.16474115 C22.0610905,5.80040164 24,8.19250227 24,11 C24,14.3137085 21.3137085,17 18,17 L16,17 C15.4477153,17 15,16.5522847 15,16 C15,15.4477153 15.4477153,15 16,15 L18,15 C20.209139,15 22,13.209139 22,11 C22,8.99190173 20.5110314,7.30173303 18.54072,7.03611816 L17.9296482,6.95374046 L17.7288379,6.37075679 C17.0397682,4.37028054 15.1505639,3 13,3 C11.4953231,3 10.1017339,3.66735248 9.15660069,4.8015945 L8.76027363,5.27722144 L8.15783834,5.13450548 C7.78191951,5.04545091 7.39431548,5 7,5 C4.23857625,5 2,7.23857625 2,10 C2,12.7614237 4.23857625,15 7,15 L8,15 C8.55228475,15 9,15.4477153 9,16 C9,16.5522847 8.55228475,17 8,17 L7,17 C3.13400675,17 0,13.8659932 0,10 C0,6.13400675 3.13400675,3 7,3 C7.34554473,3 7.68811403,3.02511468 8.02570504,3.07474639 C9.32517578,1.76156798 11.1013103,1 13,1 Z"/>
</svg>

<svg xmlns="http://www.w3.org/2000/svg" width="24" height="24" viewBox="0 0 24 24"><path fill="#758CA3" fill-rule="evenodd" d="M13 10.4142V22c0 .5523-.4477 1-1 1s-1-.4477-1-1V10.4142l-1.2929 1.293c-.3905.3904-1.0237.3904-1.4142 0-.3905-.3906-.3905-1.0238 0-1.4143l3-3c.3905-.3905 1.0237-.3905 1.4142 0l3 3c.3905.3905.3905 1.0237 0 1.4142-.3905.3905-1.0237.3905-1.4142 0L13 10.4142zM13 1c2.8074 0 5.2963 1.6679 6.402 4.1647C22.061 5.8004 24 8.1925 24 11c0 3.3137-2.6863 6-6 6h-2c-.5523 0-1-.4477-1-1s.4477-1 1-1h2c2.2091 0 4-1.7909 4-4 0-2.0081-1.489-3.6983-3.4593-3.9639l-.611-.0824-.2009-.583C17.0398 4.3704 15.1506 3 13 3c-1.5047 0-2.8983.6674-3.8434 1.8016l-.3963.4756-.6025-.1427A5.0166 5.0166 0 0 0 7 5c-2.7614 0-5 2.2386-5 5s2.2386 5 5 5h1c.5523 0 1 .4477 1 1s-.4477 1-1 1H7c-3.866 0-7-3.134-7-7s3.134-7 7-7c.3455 0 .6881.0251 1.0257.0747A6.982 6.982 0 0 1 13 1z"/></svg>
